src/assets/duotone/PrinterSlash.svg

<?xml version="1.0" encoding="UTF-8"?>
<svg width="24" height="24" viewBox="0 0 24 24" xmlns="http://www.w3.org/2000/svg">
 <path d="m6 7c-2 0-3 1-3 3v5c0 2 1 3 3 3l2-2v-1h1l8-8h-11zm1 4.75c-0.41 0-0.75-0.34-0.75-0.75s0.34-0.75 0.75-0.75h2c0.41 0 0.75 0.34 0.75 0.75s-0.34 0.75-0.75 0.75h-2z" opacity=".4"/>
 <path d="m9 15-1 1v-1h1z"/>
 <path d="m17 5v2h-10v-2c0-1.66 1.34-3 3-3h4c1.66 0 3 1.34 3 3z"/>
 <path d="m22.53 1.4697c0.2929 0.29289 0.2929 0.76777 0 1.0607l-20 20c-0.29289 0.2929-0.76777 0.2929-1.0607 0s-0.29289-0.7677 0-1.0606l20-20c0.2929-0.29289 0.7677-0.29289 1.0606 0z" clip-rule="evenodd" fill-rule="evenodd"/>
 <path d="m9.75 11c0 0.41-0.34 0.75-0.75 0.75h-2c-0.41 0-0.75-0.34-0.75-0.75s0.34-0.75 0.75-0.75h2c0.41 0 0.75 0.34 0.75 0.75z"/>
 <path d="m17.75 15c0 0.41-0.34 0.75-0.75 0.75h-5.75l1.5-1.5h4.25c0.41 0 0.75 0.34 0.75 0.75z"/>
 <path d="m16 15v4c0 1.66-1.34 3-3 3h-2c-1.66 0-3-1.34-3-3l4-4h4z"/>
 <path d="m21 10v5c0 2-1 3-3 3h-2v-3h-4l7.67-7.67c0.89 0.45 1.33 1.34 1.33 2.67z" opacity=".4"/>
</svg>

<svg width="24" height="24" viewBox="0 0 24 24"  xmlns="http://www.w3.org/2000/svg">
<path opacity="0.4" d="M6 7C4 7 3 8 3 10V15C3 17 4 18 6 18L8 16V15H9L17 7H6ZM7 11.75C6.59 11.75 6.25 11.41 6.25 11C6.25 10.59 6.59 10.25 7 10.25H9C9.41 10.25 9.75 10.59 9.75 11C9.75 11.41 9.41 11.75 9 11.75H7Z" />
<path d="M9 15L8 16V15H9Z" />
<path d="M17 5V7H7V5C7 3.34 8.34 2 10 2H14C15.66 2 17 3.34 17 5Z" />
<path fill-rule="evenodd" clip-rule="evenodd" d="M22.5303 1.46967C22.8232 1.76256 22.8232 2.23744 22.5303 2.53033L2.53033 22.5303C2.23744 22.8232 1.76256 22.8232 1.46967 22.5303C1.17678 22.2374 1.17678 21.7626 1.46967 21.4697L21.4697 1.46967C21.7626 1.17678 22.2374 1.17678 22.5303 1.46967Z" />
<path d="M9.75 11C9.75 11.41 9.41 11.75 9 11.75H7C6.59 11.75 6.25 11.41 6.25 11C6.25 10.59 6.59 10.25 7 10.25H9C9.41 10.25 9.75 10.59 9.75 11Z" />
<path d="M17.75 15C17.75 15.41 17.41 15.75 17 15.75H11.25L12.75 14.25H17C17.41 14.25 17.75 14.59 17.75 15Z" />
<path d="M16 15V19C16 20.66 14.66 22 13 22H11C9.34 22 8 20.66 8 19L12 15H16Z" />
<path opacity="0.4" d="M21 10.0001V15.0001C21 17.0001 20 18.0001 18 18.0001H16V15.0001H12L19.67 7.33008C20.56 7.78008 21 8.67008 21 10.0001Z" />
</svg>
